svg/sql.svg

<svg viewBox="0 0 20 20" xmlns="http://www.w3.org/2000/svg">
<rect width="100%" height="100%" fill="#0072C6"/>
<path fill-rule="evenodd" clip-rule="evenodd" d="M15.2434 3.41873C14.7119 4.14605 12.5662 4.68953 9.99994 4.68953C7.03421 4.68953 4.62964 3.96368 4.62964 3.06705C4.62964 2.17043 7.03421 1.44458 9.99994 1.44458C12.6274 1.44458 14.8141 2.01465 15.2787 2.76787C15.339 2.86521 15.3705 2.96561 15.3705 3.06824C15.3705 3.18862 15.3265 3.30589 15.2434 3.41873Z" fill="white"/>
<path fill-rule="evenodd" clip-rule="evenodd" d="M3.25 3.20898V16.2904C3.25 17.6488 6.2722 18.7499 10 18.7499V18.7495C13.7278 18.7495 16.7499 17.6488 16.7499 16.2905V3.20898C16.7496 4.56699 13.7275 5.6678 9.99994 5.6678L9.90747 5.66758V5.66778C6.22232 5.64974 3.25 4.55583 3.25 3.20898ZM7.41639 13.2338C7.70979 13.0108 7.85626 12.696 7.85626 12.2894C7.85626 11.999 7.77301 11.7555 7.60336 11.5602C7.43371 11.3649 7.15021 11.173 6.75196 10.9835C6.48466 10.856 6.30826 10.7489 6.22186 10.6622C6.13546 10.5756 6.09249 10.4645 6.09249 10.329C6.09087 10.2673 6.10467 10.2061 6.13265 10.1511C6.16062 10.0961 6.20188 10.0489 6.25269 10.0138C6.35956 9.93526 6.50514 9.89611 6.68919 9.89611C7.05549 9.89611 7.38241 9.99556 7.66951 10.1949V9.30144C7.39569 9.19209 7.05144 9.13696 6.63541 9.13696C6.16629 9.13696 5.79031 9.25284 5.50681 9.48504C5.22331 9.71724 5.08179 10.0255 5.08179 10.4098C5.08179 10.9392 5.40646 11.3582 6.05626 11.6646C6.37509 11.816 6.58659 11.9396 6.69054 12.0352C6.79449 12.1308 6.84646 12.2433 6.84646 12.3727C6.84646 12.5045 6.79246 12.6098 6.68446 12.6897C6.57646 12.7696 6.42324 12.8094 6.22524 12.8094C5.81529 12.8094 5.43999 12.6638 5.09934 12.3729V13.3294C5.39454 13.4889 5.76196 13.5686 6.20161 13.5686C6.71844 13.5686 7.12299 13.4567 7.41639 13.2338ZM12.0977 12.6332C12.3254 12.2631 12.4395 11.8255 12.4395 11.3215C12.4395 10.8974 12.3536 10.5176 12.1821 10.1828C12.0107 9.84796 11.7704 9.59034 11.4603 9.40899C11.1503 9.22764 10.799 9.13696 10.4073 9.13696C9.98701 9.13696 9.61508 9.23056 9.29018 9.41776C8.96529 9.60496 8.71329 9.87249 8.53419 10.2201C8.35509 10.5677 8.26554 10.9637 8.26554 11.4079C8.26554 11.8082 8.34856 12.1713 8.51371 12.4971C8.67886 12.8229 8.91376 13.0794 9.21774 13.2666C9.52171 13.4538 9.86303 13.5546 10.2413 13.5683L11.1235 14.5635H12.3709L11.1354 13.4131C11.5492 13.2635 11.87 13.0034 12.0977 12.6332ZM11.1473 10.3459C11.3357 10.5981 11.4297 10.941 11.4297 11.3755C11.4297 11.7976 11.3323 12.1292 11.1381 12.3711C10.9439 12.613 10.6818 12.734 10.3508 12.734C10.0259 12.734 9.76561 12.6092 9.56963 12.3592C9.37366 12.1092 9.27578 11.7753 9.27578 11.3568C9.27578 10.9365 9.37546 10.5995 9.57571 10.3468C9.77596 10.0941 10.0421 9.96766 10.3749 9.96766C10.7018 9.96766 10.959 10.0937 11.1473 10.3459ZM13.1438 13.4936H15.6806L15.6804 12.7109H14.1032V9.20896H13.1438V13.4936Z" fill="white"/>
</svg>

<svg xmlns="http://www.w3.org/2000/svg" viewBox="0 0 20 20">
  <rect width="100%" height="100%" fill="#0072C6"/>
  <path fill="#fff" fill-rule="evenodd" d="M15.24 3.42c-.53.73-2.67 1.27-5.24 1.27-2.97 0-5.37-.73-5.37-1.62 0-.9 2.4-1.63 5.37-1.63 2.63 0 4.81.57 5.28 1.33.06.1.1.2.1.3-.01.12-.05.24-.14.35Z" clip-rule="evenodd"/>
  <path fill="#fff" fill-rule="evenodd" d="M3.25 3.2V16.3c0 1.36 3.02 2.46 6.75 2.46s6.75-1.1 6.75-2.46V3.21c0 1.36-3.02 2.46-6.75 2.46h-.1C6.23 5.65 3.26 4.56 3.26 3.2Zm4.17 10.03c.29-.22.44-.53.44-.94 0-.3-.09-.53-.26-.73-.17-.2-.45-.39-.85-.58a2.09 2.09 0 0 1-.53-.32.45.45 0 0 1-.13-.33.37.37 0 0 1 .16-.32c.11-.07.26-.11.44-.11.37 0 .7.1.98.3v-.9a2.8 2.8 0 0 0-1.03-.16c-.47 0-.85.11-1.13.35-.29.23-.43.54-.43.92 0 .53.33.95.98 1.25.32.16.53.28.63.38.1.1.16.2.16.33s-.06.24-.17.32a.76.76 0 0 1-.45.12 1.7 1.7 0 0 1-1.13-.44v.96c.3.16.66.24 1.1.24.52 0 .92-.11 1.22-.34Zm4.68-.6c.23-.37.34-.8.34-1.3 0-.43-.09-.81-.26-1.15-.17-.33-.41-.59-.72-.77a2.05 2.05 0 0 0-1.05-.27c-.42 0-.8.1-1.12.28-.32.18-.58.45-.76.8-.17.35-.26.74-.26 1.19 0 .4.08.76.24 1.09.17.32.4.58.7.77.31.18.65.28 1.03.3l.88 1h1.25l-1.23-1.16c.4-.15.73-.4.96-.78Zm-.95-2.28c.19.25.28.6.28 1.03 0 .42-.1.75-.3 1a.96.96 0 0 1-.78.35.94.94 0 0 1-.78-.37c-.2-.25-.3-.58-.3-1 0-.42.1-.76.3-1.01.2-.26.47-.38.8-.38.33 0 .59.12.78.38Zm2 3.14h2.53v-.78H14.1v-3.5h-.96v4.28Z" clip-rule="evenodd"/>
</svg>
